icons/Logos/wechat-2-fill.svg

<svg viewBox="0 0 24 24" xmlns="http://www.w3.org/2000/svg"><path d="M5.45777 18.1842C3.359 16.6765 2.00098 14.3996 2.00098 11.9073C2.00098 7.32269 6.47628 3.59961 12.001 3.59961C17.5257 3.59961 22.001 7.32269 22.001 11.9073C22.001 16.4919 17.5257 20.215 12.001 20.215C10.859 20.215 9.74789 20.0611 8.72937 19.7535C8.63678 19.7227 8.51332 19.7227 8.42073 19.7227C8.23554 19.7227 8.05036 19.7842 7.89604 19.8765L5.70468 21.1381C5.64295 21.1688 5.58122 21.1996 5.5195 21.1996C5.33431 21.1996 5.17999 21.0458 5.17999 20.8611C5.17999 20.7688 5.21085 20.7073 5.24172 20.615C5.27258 20.5842 5.55036 19.5688 5.70468 18.9535C5.70468 18.8919 5.73554 18.7996 5.73554 18.7381C5.73554 18.4919 5.64295 18.3073 5.45777 18.1842ZM8.66764 10.511C9.38493 10.511 9.95278 9.94286 9.95278 9.22518C9.95278 8.5075 9.38493 7.93934 8.66764 7.93934C7.95036 7.93934 7.3825 8.5075 7.3825 9.22518C7.3825 9.94286 7.95036 10.511 8.66764 10.511ZM15.3343 10.511C16.0516 10.511 16.6194 9.94286 16.6194 9.22518C16.6194 8.5075 16.0516 7.93934 15.3343 7.93934C14.617 7.93934 14.0492 8.5075 14.0492 9.22518C14.0492 9.94286 14.617 10.511 15.3343 10.511Z"/></svg>

<svg xmlns="http://www.w3.org/2000/svg" viewBox="0 0 24 24">
    <g>
        <path fill="none" d="M0 0h24v24H0z"/>
        <path d="M5.457 18.185C3.358 16.677 2 14.4 2 11.908 2 7.323 6.475 3.6 12 3.6s10 3.723 10 8.308c0 4.584-4.475 8.307-10 8.307a11.36 11.36 0 0 1-3.272-.461c-.092-.03-.216-.03-.308-.03-.185 0-.37.06-.525.153l-2.191 1.261a.44.44 0 0 1-.185.062.342.342 0 0 1-.34-.338c0-.093.03-.154.062-.247.03-.03.308-1.046.463-1.661 0-.062.03-.154.03-.216 0-.246-.092-.43-.277-.553zm3.21-7.674c.717 0 1.285-.568 1.285-1.285 0-.718-.568-1.286-1.285-1.286-.718 0-1.285.568-1.285 1.286 0 .717.567 1.285 1.285 1.285zm6.666 0c.718 0 1.285-.568 1.285-1.285 0-.718-.567-1.286-1.285-1.286-.717 0-1.285.568-1.285 1.286 0 .717.568 1.285 1.285 1.285z"/>
    </g>
</svg>
